modules/entypo/icons/popup.svg

<svg height="1000" width="800" viewBox="0 0 800 1000" xmlns="http://www.w3.org/2000/svg"><path d="M700 100c28 0 51.667 9.667 71 29s29 43 29 71v400c0 26.667-9.667 50-29 70s-43 30-71 30H300c-26.667 0-50-10-70-30s-30-43.333-30-70V198c0-26.667 9.667-49.667 29-69s43-29 71-29h400m0 500V200H300v400h400M100 500v300h300v100H100c-26.667 0-50-10-70-30S0 826.667 0 800V500h100"/></svg>

<svg height="1000px" width="800px" xmlns="http://www.w3.org/2000/svg">
  <g>
    <path d="M700 100c28 0 51.667 9.667 71 29c19.333 19.333 29 43 29 71c0 0 0 400 0 400c0 26.667 -9.667 50 -29 70c-19.333 20 -43 30 -71 30c0 0 -400 0 -400 0c-26.667 0 -50 -10 -70 -30c-20 -20 -30 -43.333 -30 -70c0 0 0 -402 0 -402c0 -26.667 9.667 -49.667 29 -69c19.333 -19.333 43 -29 71 -29c0 0 400 0 400 0c0 0 0 0 0 0m0 500c0 0 0 -400 0 -400c0 0 -400 0 -400 0c0 0 0 400 0 400c0 0 400 0 400 0c0 0 0 0 0 0m-600 -100c0 0 0 300 0 300c0 0 300 0 300 0c0 0 0 100 0 100c0 0 -300 0 -300 0c-26.667 0 -50 -10 -70 -30c-20 -20 -30 -43.333 -30 -70c0 0 0 -300 0 -300c0 0 100 0 100 0c0 0 0 0 0 0" />
  </g>
</svg>
